dist/img/android.svg

<svg width="22" height="13" viewBox="0 0 22 13" fill="none" xmlns="http://www.w3.org/2000/svg">
<path d="M16.0628 9.71235C15.5577 9.71235 15.1468 9.28105 15.1468 8.75127C15.1468 8.22149 15.5577 7.79054 16.0628 7.79054C16.568 7.79054 16.9789 8.2214 16.9789 8.75127C16.9789 9.28114 16.568 9.71235 16.0628 9.71235ZM5.93722 9.71235C5.43209 9.71235 5.0212 9.28105 5.0212 8.75127C5.0212 8.22149 5.43201 7.79054 5.93722 7.79054C6.44235 7.79054 6.85324 8.2214 6.85324 8.75127C6.85324 9.28114 6.44243 9.71235 5.93722 9.71235ZM16.3913 3.92475L18.2222 0.599028C18.2726 0.507246 18.2862 0.398245 18.2601 0.29594C18.234 0.193635 18.1702 0.106383 18.0828 0.0533296C17.9953 0.000495948 17.8914 -0.0137802 17.7938 0.0136322C17.6963 0.0410446 17.6131 0.107907 17.5625 0.199558L15.7087 3.56731C14.291 2.88883 12.6989 2.51082 11 2.51082C9.30109 2.51082 7.70899 2.88883 6.29136 3.56731L4.43751 0.199558C4.38691 0.107907 4.30372 0.0410446 4.20618 0.0136322C4.10864 -0.0137802 4.00472 0.000495948 3.91721 0.0533296C3.82975 0.106334 3.76594 0.193586 3.7398 0.295912C3.71365 0.398237 3.72732 0.507263 3.77778 0.599028L5.60865 3.92475C2.46478 5.7181 0.314564 9.05621 0 13H22C21.6852 9.0563 19.535 5.7181 16.3913 3.92466" fill="white"/>
</svg>

<svg xmlns="http://www.w3.org/2000/svg" width="22" height="13" fill="none"><path fill="#fff" d="M16.063 9.712c-.505 0-.916-.43-.916-.96s.41-.961.916-.961c.505 0 .916.43.916.96s-.411.961-.916.961Zm-10.126 0c-.505 0-.916-.43-.916-.96s.411-.961.916-.961c.505 0 .916.43.916.96s-.41.961-.916.961Zm10.454-5.787L18.222.599c.05-.092.064-.2.038-.303a.398.398 0 0 0-.177-.243.366.366 0 0 0-.29-.04.384.384 0 0 0-.23.187l-1.854 3.367A10.86 10.86 0 0 0 11 2.511a10.86 10.86 0 0 0-4.709 1.056L4.438.2a.384.384 0 0 0-.232-.186.366.366 0 0 0-.289.04.398.398 0 0 0-.177.242.417.417 0 0 0 .038.303l1.83 3.326C2.466 5.718.316 9.056 0 13h22c-.315-3.944-2.465-7.282-5.609-9.075"/></svg>
